!!!OTL: Der Spielmannssohn Guten Abend, guten Abend, mein tausiger Schatz,
!!!ARE: Europa, Mitteleuropa, Deutschland (BRD), Rheinland, Bergisches Land
!!!YOR: 3. S. 178
!!    1840 aufgezeichnet (vor)
!!!SCT: Q1062C
!!!YEM: Copyright 1995, estate of Helmut Schaffrath.
**kern
*ICvox
*Ivox
*M6/8
*k[b-e-a-d-]
*f:
{16c
16c
=1
8c
8f
16f
16f
8f
8e
8f
=2
8.g
16a-
8g
4f}
{8f
=3
4g
8cc
8b-
8a-
8g
=4
4f
8a-
4g}
{8f
=5
4g
8cc
8cc
8b-
8cc
=6
8a-
8g
8f
4e-}
{8c
=7
4f
8g
8a-
8g
8f
=8
8a-
8g
8f
4.e
=9
4f
4.r}
==
!!!AGN: Fenstergang - Lied
!! Verzierungen (Vorschlaege) ; Melodievergleich zu Q0062, anderes Lied.
!!!ONB: ESAC (Essen Associative Code) Database: BALLADE
!!!AMT: compound duple
!!!AIN: vox
!!!EED: Helmut Schaffrath
!!!EEV: 1.0
*-
